src/dark/hiso font dark_270E.svg

<svg xmlns="http://www.w3.org/2000/svg" width="126" height="126" viewBox="0 0 126 126"><path fill="#000101" d="M54 49.5h-54l27 40.5 54 27 27-13.5v-27l-54-27zm47.29 27l-20.29 10.149-9.8-4.899 20.3-10.14 9.79 4.89zm-16.51-8.25l-20.28 10.149-30.79-15.399 20.29-10.15 30.78 15.4zm-66.081-15.75h29.301l-17.65 8.83-14.651-7.33 3-1.5zm8.301 32.09l-14.65-21.98v-6.93l14.65 7.32v21.59zm34.5 19.309l-31.5-15.75v-23.649l31.5 15.75v23.649zm19.5 9.75l-13.5-6.75v-23.649l13.5 6.75v23.649z"/></svg>

<svg xmlns="http://www.w3.org/2000/svg" width="126" height="126"><path fill="#000101" d="M54 49.5H0L27 90l54 27 27-13.5v-27l-54-27zm47.29 27L81 86.649l-9.8-4.899 20.3-10.14 9.79 4.89zm-16.51-8.25L64.5 78.399 33.71 63 54 52.85l30.78 15.4zM18.699 52.5H48l-17.65 8.83L15.699 54l3-1.5zM27 84.59L12.35 62.61v-6.93L27 63v21.59zm34.5 19.309L30 88.149V64.5l31.5 15.75v23.649zm19.5 9.75l-13.5-6.75V83.25L81 90v23.649z"/></svg>
